X: 29
T:Return to Miltown
S:Session
M:C
L:1/8
K:DMinor
|:D2 F/E/D ADFD| C2 EC FCEC| DA, ~A,2 DEFD| CDEG cAGE|
D2 F/E/D ADFD| C2 EC FCEC| F3 D E3 D| CDEG cAGE :||
K:D
|: d3 e f2 ed| cdef gece| d3 e f2 ed| cAGE{F} ED D2|
d3 e f2 ed| cdef g2 ge| ~f3 d efed| cAGE ED D2 :|
